X:1
T:Title
%%score 1 2 3 4
L:1/8
M:2/2
K:C
V:1 treble nm="Part_1"
V:2 treble-8 nm="Part_2"
V:3 treble nm="Part_3"
V:4 treble-8 nm="Part_4"
V:1
 D8 | F8 | E8- | E8 | F8 | G8 | A2 G2 G4- | G4 ^F4 | G8 | z8 | F8 | F8 | E8 | F4 G4- | G2 E2 ^F4 | %15
 G8 | z4 G4- | G2 F2 F4 | D8 | F4 E4 | G8 | F2 E2 E4- | E4 D4 | E8 | z8 | F8 | G8- | G4 F4 | F8 | %29
 E4 F4 | G8 | (3:2:2A8 G4 | A4 G4- | G4 ^F4 | G8 | G6 F2 | F8- | F4 E4 | (3:2:2D8 E4 | F4 G4- | %40
 G2 F2 G4 | A4 F4- | F4 E4 | F8 | z8 | F8 | D8 | (3:2:2G8 F4 | D8 | E4 C4- | C4 z4 | F4 E4 | %52
 F4 G2 _B2- | B2 A2 F4- | F4 E4 | F8 | z8 | C8 | C8 | D6 E2 | F8- | F4 F4 | F8 | z4 E4 | E4 F4 | %65
 G8 | A4 G4- | G4 F4 | G6 F2 | D6 E2 | F6 E2 | C4 D4- | D2 C2 B,2 A,2 | G,4 C4 | D2 F4 E2 | %75
 D2 C2 C4- | C4 B,4 | C8- | C8 | z8 | z8 | E8 | F8 | G8 | G4 A4- | A2 G2 E2 F2 | G6 F2 | %87
 E2 D2 D4- | D4 C4 | D8 | z4 F4 | G4 (3:2:1A6- | (3:2:2A2 G4 G4- | G4 ^F4 | G8 | z4 G4 | E4 F4 | %97
 G8 | E4 D4 | F6 E2 | D4 A4- | A2 G2 G4- | G4 F4 | G8- | G8 | z8 | F8- | F4 E4 | F4 (3:2:1G6- | %109
 (3:2:2G2 F4 E4- | E4 D4 | C4 F4- | F2 E2 E4 | D2 D4 C2 | E8 ||[M:2/2] A8 | G8 | G8 | A8- | A4 A4 | %120
 A8 | A8 | z8 | A8 | A8 | G8 | G8 | B8 | B8 | A4 B4- | B2 A2 A4- | A4 G4 | A8 | z8 | A8 | A4 A4 | %136
 A4 A4 | A8 | F8 | G8 | A8 | G8 | F8 | E4 E4- | E4 D4 | E8 || A8 | G8 | G8 | A8 | A8 | A8 | A4 A4 | %153
 A4 A4 | A8 | z8 | A8 | G8 | G8 | B8 | B8 | A4 G4 | c8 | B2 A2 A4- | A4 G4 | A8 | z8 | A8- | %168
 A4 F4 | G8 | A8 | A4 A4 | A8 | A4 A4 | A8 | F8 | G8 | A8 | G6 F2 | D8 | E4 C4 | D4 E4 | F8 | %183
 G4 E4- | E4 D4 | E8- | E8 |] %187
V:2
 A8 | B8 | c8 | C4 E4 | D8 | E4 C4 | F4 G4 | D8 | E6 F2 | G4 A4 | D8- | D8 | C8 | z4 G4 | D8 | d8 | %16
 e4 (3:2:2c4 B2 | G4 A4- | A4 z4 | c4 B2 d2- | d2 c2 c2 B2 | d4 B4 | (3:2:2A8 B4 | c8 | z4 c4 | %25
 A8 | G4 c4 | B8 | A4 d4 | c4 A4 | B4 c4- | c4 F4- | F4 _B4 | A8 | G8 | z4 E4 | D4 F4- | F2 E2 C4 | %38
 F4 G4 | A4 G4 | (3:2:2B8 A4 | F8 | G8 | c8 | A4 d4- | d2 c2 A4 | B8 | c8 | z8 | C4 F2 G2 | %50
 A4 F4- | F4 E4 | D4 G4 | A4 F4 | C8 | c8 | z4 A4 | F8 | G8 | A4 _B4- | B2 A2 A4 | d6 c2 | A4 B4 | %63
 c8 | C4 D4 | G4 C4 | F4 G4 | D8 | d8 | B8 | A8 | z4 A4 | F4 E4- | E4 G4 | A4 B4- | B4 A4 | F8 | %77
 G8 | E6 D2 | C8 | z4 D4 | E8 | D8 | z4 E4 | C4 F4- | F2 E2 C4- | C4 E4 | D4 A4- | A4 G4 | A8 | %90
 D8 | E4 A4 | D4 E2 G2 | D8 | G4 B4- | B4 z4 | c4 A4 | G4 c4- | c4 A4- | A4 G4 | A8 | B8 | z4 c4 | %103
 d8 | c8 | d8 | A8 | D4 A4 | F4 G4 | C8 | c4 A4 | G4 A4 | c4 B4- | B4 A4 | B8 ||[M:2/2] e8 | d8 | %117
 e8- | e8 | f4 e4- | e4 d4 | e8 | z8 | e8 | A4 F4 | E8- | E8 | B6 A2 | G8 | z4 F4 | E4 e4- | %131
 e4 d4 | e8 | z8 | e8 | e4 e4 | e4 e4 | e8 | A8 | E8 | e8 | d8 | B4 c4- | c2 B2 B4- | B4 A4 | B8 || %146
 e8- | e8 | e8 | c8 | d8- | d8 | A4 A4 | A4 A4 | d8 | z8 | e8- | e8 | B8- | B8 | z8 | e8 | f8- | %163
 f4 e4 | d8 | d8 | z8 | c8 | (3:2:2c8 d4 | e8- | e8 | d4 d4 | d8 | A4 A4 | d8- | d8 | e8 | %177
 (3:2:2c8 d4 | e8 | A2 B2 c4 | B8 | B4 c4- | c4 z4 | c8 | A8 | B8- | B8 |] %187
V:3
 z8 | z8 | z8 | z8 | z8 | z8 | z8 | z8 | z8 | z8 | z8 | z8 | z8 | z8 | z8 | z8 | z8 | z8 | z8 | %19
 z8 | z8 | z8 | z8 | z8 | z8 | z8 | z8 | z8 | z8 | z8 | z8 | z8 | z8 | z8 | z8 | z8 | z8 | z8 | %38
 z8 | z8 | z8 | z8 | z8 | z8 | z8 | z8 | z8 | z8 | z8 | z8 | z8 | z8 | z8 | z8 | z8 | z8 | z8 | %57
 z8 | z8 | z8 | z8 | z8 | z8 | z8 | z8 | z8 | z8 | z8 | z8 | z8 | z8 | z8 | z8 | z8 | z8 | z8 | %76
 z8 | z8 | z8 | z8 | z8 | z8 | z8 | z8 | z8 | z8 | z8 | z8 | z8 | z8 | z8 | z8 | z8 | z8 | z8 | %95
 z8 | z8 | z8 | z8 | z8 | z8 | z8 | z8 | z8 | z8 | z8 | z8 | z8 | z8 | z8 | z8 | z8 | z8 | z8 | %114
 z8 ||[M:2/2] z8 | z8 | z8 | z8 | z8 | z8 | z8 | z8 | z8 | z8 | z8 | z8 | z8 | z8 | z8 | z8 | z8 | %132
 z8 | z8 | z8 | z8 | z8 | z8 | z8 | z8 | z8 | z8 | z8 | z8 | z8 | z8 || A,8 | E,8- | E,8 | F,8 | %150
 D,8- | D,8 | z8 | D,4 D,4 | D,8 | z8 | A,8 | E,8- | E,8 | G,8- | G,8 | A,8 | F,8 | D,4 F,4 | G,8 | %165
 D,8 | z8 | F,8- | F,8 | E,8 | A,8 | F,4 F,4 | D,8- | D,8 | D,8 | (3:2:2A,8 B,4 | C8 | A,8 | z8 | %179
 D,4 C,4 | G,4 F,4 | D,4 C,4 | F,8 | C,8 | D,8 | G,8 | E,8 |] %187
V:4
 D8- | D8 | C8 | G8 | A8 | G4 c4- | c4 B4 | A8 | G4 z4 | B4 c4 | (3:2:2d8 c4 | A4 B4 | c8 | d4 B4 | %14
 A8 | G8 | C8 | E4 D4- | D4 F4- | F4 G4- | G4 E4 | D4 E4 | F8 | C8- | C8 | z8 | z8 | z8 | z8 | z8 | %30
 z8 | z8 | z8 | z8 | z8 | z8 | z8 | z8 | z8 | z8 | z8 | z8 | z8 | F8 | F8 | D8 | G8 | C8 | D4 F4 | %49
 G4 A4 | F8 | z4 c4 | d4 _B4 | c4 A4 | G8 | F8- | F8 | A6 G2 | E8 | D4 G4 | F4 D4- | D4 z4 | F8 | %63
 C8 | c4 A4 | B4 c4- | c4 B4 | A8 | G8- | G8 | D6 E2 | F8 | D4 G4- | G4 E4 | F4 G4 | E4 F4 | D8 | %77
 C8 | z8 | E8 | F8 | G8 | A8 | B4 G4 | c8 | c4 G4- | G8 | A4 F4 | E8 | D8 | d8 | B4 c4 | d4 B4 | %93
 A8 | z4 G4 | E8 | C4 D4 | E4 C4- | C4 D4- | D4 E4 | F8 | G8 | A8 | G8 | E8 | D8 | z8 | d4 c4 | %108
 A4 B4 | c8 | C4 D4 | E4 D4 | A4 G4 | F8 | E8 ||[M:2/2] A8 | B8 | c8 | c8 | A4 A4 | c4 B4 | A8 | %122
 z8 | A8 | c4 d4 | (3:2:2e8 d4 | B8 | G8 | d8 | c4 d4 | e4 c4 | B8 | A8 | z8 | A8 | c4 c4 | c4 c4 | %137
 A8 | d8 | B8 | c8 | A4 G4- | G4 A4 | G4 E4 | F8 | E8 || A8 | B8- | B8 | A8 | A8 | A8 | c4 c4 | %153
 d4 c4 | A8 | z8 | c8 | B8 | e8 | d8- | d8 | c8- | c8 | d4 A4 | B8 | A8 | z8 | A8- | A8 | B8 | c8 | %171
 A4 A4 | A8 | d4 c4 | A8 | D8 | C8 | F8 | E8 | F4 G4- | G4 A4 | F4 G4 | A8 | E8 | F8 | E8- | E8 |] %187

